Sources/FrostedUI/Resources/Icons.xcassets/clipboardSize24.imageset/clipboard-size-24.svg

<svg
  width="24"
  height="24"
  viewBox="0 0 24 24"
  fill="none"
  xmlns="http://www.w3.org/2000/svg"
  data-fui-icon="true"
>
  <path
    d="M16.5938 3.75H18.375C19.4105 3.75 20.25 4.58947 20.25 5.625V21.375C20.25 22.4105 19.4105 23.25 18.375 23.25H5.625C4.58947 23.25 3.75 22.4105 3.75 21.375V5.625C3.75 4.58947 4.58947 3.75 5.625 3.75H7.40625M7.75 9.5H16.25M7.75 14H16.25M7.75 18.5H16.25"
    stroke="currentColor"
    stroke-width="1.5"
    stroke-linecap="round"
    stroke-linejoin="round"
  />
  <path
    d="M13.8482 2.75L13.1419 3.00225C13.2485 3.30075 13.5313 3.5 13.8482 3.5V2.75ZM10.1518 2.75V3.5C10.4687 3.5 10.7515 3.30075 10.8581 3.00225L10.1518 2.75ZM10.5097 1.74775L9.80343 1.4955V1.4955L10.5097 1.74775ZM13.4903 1.74775L14.1966 1.49549V1.49549L13.4903 1.74775ZM13.8482 3.5H15.4989V2H13.8482V3.5ZM15.4989 3.5C15.5003 3.5 15.4999 3.50014 15.4991 3.49981C15.4989 3.49968 15.4993 3.49983 15.5 3.50052C15.5007 3.5012 15.5007 3.5015 15.5004 3.50088C15.4999 3.49975 15.5 3.49896 15.5 3.5H17C17 2.67019 16.326 2 15.4989 2V3.5ZM15.5 3.5V5H17V3.5H15.5ZM15.5 5V6.5C16.3284 6.5 17 5.82843 17 5H15.5ZM15.5 5H8.5V6.5H15.5V5ZM8.5 5H7C7 5.82843 7.67157 6.5 8.5 6.5V5ZM8.5 5V3.5H7V5H8.5ZM8.5 3.5C8.5 3.49896 8.50006 3.49975 8.49958 3.50088C8.49932 3.5015 8.49933 3.5012 8.50001 3.50052C8.5007 3.49983 8.50114 3.49969 8.50085 3.49981C8.50006 3.50014 8.49966 3.5 8.50106 3.5V2C7.67401 2 7 2.67019 7 3.5H8.5ZM8.50106 3.5H10.1518V2H8.50106V3.5ZM10.8581 3.00225L11.216 2L9.80343 1.4955L9.44548 2.49775L10.8581 3.00225ZM11.216 2V2V0.5C10.5821 0.5 10.0166 0.898506 9.80343 1.4955L11.216 2ZM11.216 2H12.784V0.5H11.216V2ZM12.784 2V2L14.1966 1.49549C13.9834 0.898505 13.4179 0.5 12.784 0.5V2ZM12.784 2L13.1419 3.00225L14.5545 2.49775L14.1966 1.49549L12.784 2Z"
    fill="currentColor"
  />
</svg>

<svg xmlns="http://www.w3.org/2000/svg" width="24" height="24" fill="none" data-fui-icon="true" viewBox="0 0 24 24"><path stroke="currentColor" stroke-linecap="round" stroke-linejoin="round" stroke-width="1.5" d="M16.594 3.75h1.781c1.035 0 1.875.84 1.875 1.875v15.75c0 1.035-.84 1.875-1.875 1.875H5.625a1.875 1.875 0 0 1-1.875-1.875V5.625c0-1.036.84-1.875 1.875-1.875h1.781M7.75 9.5h8.5M7.75 14h8.5m-8.5 4.5h8.5"/><path fill="currentColor" d="m13.848 2.75-.706.252a.75.75 0 0 0 .706.498zm-3.696 0v.75c.317 0 .6-.2.706-.498zm.358-1.002-.707-.252zm2.98 0 .707-.253zm.358 1.752h1.65V2h-1.65zm1.65 0h.002q0 .002 0 0H17A1.5 1.5 0 0 0 15.499 2zm.002 0V5H17V3.5zm0 1.5v1.5A1.5 1.5 0 0 0 17 5zm0 0h-7v1.5h7zm-7 0H7a1.5 1.5 0 0 0 1.5 1.5zm0 0V3.5H7V5zm0-1.5q0 .002 0 0h.001V2A1.5 1.5 0 0 0 7 3.5zm.001 0h1.65V2h-1.65zm2.357-.498L11.216 2l-1.413-.504-.358 1.002zM11.216 2V.5a1.5 1.5 0 0 0-1.413.996zm0 0h1.568V.5h-1.568zm1.568 0 1.413-.505A1.5 1.5 0 0 0 12.784.5zm0 0 .358 1.002 1.413-.504-.358-1.003z"/></svg>
